X:648
T:Miss Jessie Scott
R:Reel
B:The Athole Collection
M:C|
L:1/8
K:D
g|fdec d2 A=c|BGAF GEEg|fdec d2Ac|fdeg fdd:|
g|fede fgaf|gbaf beeg|fede fgaf|gbagfeeg|fede fgaf|
gbaf beeg|fdAd FdDg|f/g/a eg fdd||

